home/.icons/Gruvbox-Plus-Dark/apps/16/kali-linux.svg

<svg width="16" height="16" version="1.1" xmlns="http://www.w3.org/2000/svg">
  <defs>
    <style type="text/css" id="current-color-scheme">.ColorScheme-Text { color:#ebdbb2; } .ColorScheme-Highlight { color:#458588; }</style>
  </defs>
  <path class="ColorScheme-Text" fill="currentColor" d="m1.488 1.504c-0.086 0-0.171 1e-3 -0.256 2e-3 -0.636 9e-3 -1.015 0.029-1.061 0.056-0.058 0.033 5e-3 0.046 0.317 0.063 3.197 0.178 4.384 0.311 5.745 0.644 0.589 0.144 1.438 0.416 1.71 0.548l0.171 0.082 0.065 0.392c0.076 0.459 0.213 0.915 0.392 1.305l0.128 0.278-0.179 0.148c-0.724 0.599-0.986 1.079-1.039 1.906-0.08 1.234 0.609 2.143 1.85 2.443 0.174 0.042 0.535 0.102 0.802 0.134 1.594 0.189 2.24 0.466 3.129 1.341 0.344 0.339 0.805 0.88 1.025 1.205 0.361 0.532 0.686 1.359 0.819 2.083l0.066 0.363 0.011-0.382c0.037-1.331-0.729-2.851-2.008-3.984-0.203-0.18-0.353-0.333-0.333-0.34 0.081-0.028 0.75 0.195 1.098 0.367 0.805 0.398 1.438 1.061 1.874 1.962 0.094 0.195 0.177 0.349 0.184 0.342 0.027-0.027-0.184-0.734-0.297-0.997-0.412-0.955-1.222-1.605-2.434-1.957-0.473-0.137-0.976-0.23-2.126-0.393-0.575-0.081-1.207-0.189-1.404-0.239-0.931-0.237-1.418-0.65-1.559-1.323-0.059-0.283-0.051-0.801 0.016-1.034 0.16-0.551 0.657-1.001 1.358-1.231 0.444-0.146 1.2 0.018 2.587 0.562l0.737 0.289 1e-3 0.153c0 0.249 0.095 0.354 0.525 0.582 0.251 0.133 0.473 0.286 0.631 0.434l0.243 0.229 0.196-0.176c0.108-0.096 0.196-0.185 0.196-0.198 0-0.012-0.059-0.041-0.13-0.065-0.072-0.023-0.232-0.118-0.357-0.209-0.177-0.131-0.221-0.183-0.203-0.239 0.031-0.098-0.392-0.728-0.511-0.759-0.048-0.013-0.138-0.024-0.202-0.024-0.096 0-0.143-0.037-0.287-0.222-0.095-0.122-0.207-0.24-0.249-0.263-0.07-0.037-0.076-0.03-0.076 0.091 0 0.073-0.013 0.132-0.027 0.132-0.015 0-0.141-0.113-0.28-0.251-0.239-0.237-0.253-0.245-0.253-0.149 0 0.056-0.015 0.102-0.032 0.102-0.042 0-0.31-0.196-0.374-0.274-0.062-0.075-0.117-0.081-0.117-0.013 0 0.035-0.064 0.019-0.214-0.055-0.309-0.151-0.861-0.288-1.335-0.331-0.791-0.071-1.133-0.255-1.378-0.742-0.119-0.236-0.171-0.507-0.171-0.901v-0.333l-0.177-0.089c-1.233-0.622-4.147-1.074-6.807-1.066v1e-3zm6.534 1.402-1.24 0.026c-2.292 0.047-3.984 0.202-5.83 0.532-0.653 0.116-0.76 0.145-0.849 0.23-0.057 0.053-0.103 0.11-0.103 0.127 0 0.041-8e-3 0.042 0.601-0.061 1.073-0.182 2.271-0.314 3.617-0.397 0.556-0.035 3.227-0.051 3.769-0.023 0.127 7e-3 0.13 4e-3 0.118-0.12-7e-3 -0.07-0.028-0.169-0.048-0.221l-0.035-0.093zm0.014 0.616c-0.058-1e-3 -0.149 0.012-0.298 0.032-1.926 0.257-3.922 0.933-5.667 1.918-0.369 0.209-0.466 0.288-0.466 0.383 0 0.027 0.015 0.049 0.034 0.049s0.292-0.133 0.607-0.296c1.634-0.846 3.367-1.378 5.163-1.587 0.88-0.103 0.847-0.097 0.826-0.15-0.01-0.027-0.039-0.118-0.064-0.203-0.033-0.107-0.038-0.146-0.135-0.146zm2.281 0.342h-4e-3c-9e-3 9e-3 0.292 0.175 0.667 0.369 1.125 0.58 1.745 0.984 2.118 1.38 0.112 0.119 0.214 0.216 0.227 0.216 0.012 0 0.052-0.022 0.089-0.049 0.061-0.044 0.047-0.067-0.17-0.268-0.437-0.405-1.076-0.84-1.674-1.14-0.291-0.146-1.179-0.505-1.253-0.508zm3.229 2.392 0.212 0.249-0.037 0.023s-0.045-4e-3 -0.067-8e-3c-0.03-6e-3 -0.061-9e-3 -0.086-0.026-0.018-0.01-0.035-0.026-0.041-0.045-0.02-0.062 0.019-0.193 0.019-0.193z"/>
</svg>

<svg xmlns="http://www.w3.org/2000/svg" style="isolation:isolate" width="16" height="16" viewBox="0 0 16 16">
 <defs>
  <style id="current-color-scheme" type="text/css">
   .ColorScheme-Text { color:#ebdbb2; } .ColorScheme-Highlight { color:#458588; }
  </style>
  <linearGradient id="arrongin" x1="0%" x2="0%" y1="0%" y2="100%">
   <stop offset="0%" style="stop-color:#d79921; stop-opacity:1"/>
   <stop offset="100%" style="stop-color:#b57614; stop-opacity:1"/>
  </linearGradient>
  <linearGradient id="aurora" x1="0%" x2="0%" y1="0%" y2="100%">
   <stop offset="0%" style="stop-color:#83a598; stop-opacity:1"/>
   <stop offset="100%" style="stop-color:#b16286; stop-opacity:1"/>
  </linearGradient>
  <linearGradient id="fitdance" x1="0%" x2="0%" y1="0%" y2="100%">
   <stop offset="0%" style="stop-color:#8ec07c; stop-opacity:1"/>
   <stop offset="100%" style="stop-color:#458588; stop-opacity:1"/>
  </linearGradient>
  <linearGradient id="oomox" x1="0%" x2="0%" y1="0%" y2="100%">
   <stop offset="0%" style="stop-color:#458588; stop-opacity:1"/>
   <stop offset="100%" style="stop-color:#928374; stop-opacity:1"/>
  </linearGradient>
  <linearGradient id="rainblue" x1="0%" x2="0%" y1="0%" y2="100%">
   <stop offset="0%" style="stop-color:#b8bb26; stop-opacity:1"/>
   <stop offset="100%" style="stop-color:#076678; stop-opacity:1"/>
  </linearGradient>
  <linearGradient id="sunrise" x1="0%" x2="0%" y1="0%" y2="100%">
   <stop offset="0%" style="stop-color: #fe8019; stop-opacity:1"/>
   <stop offset="100%" style="stop-color: #fabd2f; stop-opacity:1"/>
  </linearGradient>
  <linearGradient id="telinkrin" x1="0%" x2="0%" y1="0%" y2="100%">
   <stop offset="0%" style="stop-color: #83a598; stop-opacity:1"/>
   <stop offset="100%" style="stop-color: #83a598; stop-opacity:1"/>
  </linearGradient>
  <linearGradient id="60spsycho" x1="0%" x2="0%" y1="0%" y2="100%">
   <stop offset="0%" style="stop-color: #fb4934; stop-opacity:1"/>
   <stop offset="25%" style="stop-color: #fabd2f; stop-opacity:1"/>
   <stop offset="50%" style="stop-color: #fe8019; stop-opacity:1"/>
   <stop offset="100%" style="stop-color: #689d6a; stop-opacity:1"/>
  </linearGradient>
  <linearGradient id="90ssummer" x1="0%" x2="0%" y1="0%" y2="100%">
   <stop offset="0%" style="stop-color: #b16286; stop-opacity:1"/>
   <stop offset="20%" style="stop-color: #8ec07c; stop-opacity:1"/>
   <stop offset="50%" style="stop-color: #fabd2f; stop-opacity:1"/>
   <stop offset="100%" style="stop-color: #458588; stop-opacity:1"/>
  </linearGradient>
  <linearGradient id="cyberneon" x1="0%" x2="0%" y1="0%" y2="100%">
    <stop offset="0" style="stop-color:#83a598; stop-opacity:1"/>
    <stop offset="1" style="stop-color:#b16286; stop-opacity:1"/>
  </linearGradient>
 </defs>
 <path style="fill:currentColor" class="ColorScheme-Text" d="M 1.488 1.504 C 1.402 1.504 1.317 1.505 1.232 1.506 C 0.596 1.515 0.217 1.535 0.171 1.562 C 0.113 1.595 0.176 1.608 0.488 1.625 C 3.685 1.803 4.872 1.936 6.233 2.269 C 6.822 2.413 7.671 2.685 7.943 2.817 L 8.114 2.899 L 8.179 3.291 C 8.255 3.75 8.392 4.206 8.571 4.596 L 8.699 4.874 L 8.52 5.022 C 7.796 5.621 7.534 6.101 7.481 6.928 C 7.401 8.162 8.09 9.071 9.331 9.371 C 9.505 9.413 9.866 9.473 10.133 9.505 C 11.727 9.694 12.373 9.971 13.262 10.846 C 13.606 11.185 14.067 11.726 14.287 12.051 C 14.648 12.583 14.973 13.41 15.106 14.134 L 15.172 14.497 L 15.183 14.115 C 15.22 12.784 14.454 11.264 13.175 10.131 C 12.972 9.951 12.822 9.798 12.842 9.791 C 12.923 9.763 13.592 9.986 13.94 10.158 C 14.745 10.556 15.378 11.219 15.814 12.12 C 15.908 12.315 15.991 12.469 15.998 12.462 C 16.025 12.435 15.814 11.728 15.701 11.465 C 15.289 10.51 14.479 9.86 13.267 9.508 C 12.794 9.371 12.291 9.278 11.141 9.115 C 10.566 9.034 9.934 8.926 9.737 8.876 C 8.806 8.639 8.319 8.226 8.178 7.553 C 8.119 7.27 8.127 6.752 8.194 6.519 C 8.354 5.968 8.851 5.518 9.552 5.288 C 9.996 5.142 10.752 5.306 12.139 5.85 L 12.876 6.139 L 12.877 6.292 C 12.877 6.541 12.972 6.646 13.402 6.874 C 13.653 7.007 13.875 7.16 14.033 7.308 L 14.276 7.537 L 14.472 7.361 C 14.58 7.265 14.668 7.176 14.668 7.163 C 14.668 7.151 14.609 7.122 14.538 7.098 C 14.466 7.075 14.306 6.98 14.181 6.889 C 14.004 6.758 13.96 6.706 13.978 6.65 C 14.009 6.552 13.586 5.922 13.467 5.891 C 13.419 5.878 13.329 5.867 13.265 5.867 C 13.169 5.867 13.122 5.83 12.978 5.645 C 12.883 5.523 12.771 5.405 12.729 5.382 C 12.659 5.345 12.653 5.352 12.653 5.473 C 12.653 5.546 12.64 5.605 12.626 5.605 C 12.611 5.605 12.485 5.492 12.346 5.354 C 12.107 5.117 12.093 5.109 12.093 5.205 C 12.093 5.261 12.078 5.307 12.061 5.307 C 12.019 5.307 11.751 5.111 11.687 5.033 C 11.625 4.958 11.57 4.952 11.57 5.02 C 11.57 5.055 11.506 5.039 11.356 4.965 C 11.047 4.814 10.495 4.677 10.021 4.634 C 9.23 4.563 8.888 4.379 8.643 3.892 C 8.524 3.656 8.472 3.385 8.472 2.991 L 8.472 2.658 L 8.295 2.569 C 7.062 1.947 4.148 1.495 1.488 1.503 L 1.488 1.504 L 1.488 1.504 Z M 8.022 2.906 L 6.782 2.932 C 4.49 2.979 2.798 3.134 0.952 3.464 C 0.299 3.58 0.192 3.609 0.103 3.694 C 0.046 3.747 0 3.804 0 3.821 C 0 3.862 -0.008 3.863 0.601 3.76 C 1.674 3.578 2.872 3.446 4.218 3.363 C 4.774 3.328 7.445 3.312 7.987 3.34 C 8.114 3.347 8.117 3.344 8.105 3.22 C 8.098 3.15 8.077 3.051 8.057 2.999 L 8.022 2.906 L 8.022 2.906 Z M 8.036 3.522 C 7.978 3.521 7.887 3.534 7.738 3.554 C 5.812 3.811 3.816 4.487 2.071 5.472 C 1.702 5.681 1.605 5.76 1.605 5.855 C 1.605 5.882 1.62 5.904 1.639 5.904 C 1.658 5.904 1.931 5.771 2.246 5.608 C 3.88 4.762 5.613 4.23 7.409 4.021 C 8.289 3.918 8.256 3.924 8.235 3.871 C 8.225 3.844 8.196 3.753 8.171 3.668 C 8.138 3.561 8.133 3.522 8.036 3.522 L 8.036 3.522 Z M 10.317 3.864 C 10.316 3.864 10.314 3.864 10.313 3.864 C 10.304 3.873 10.605 4.039 10.98 4.233 C 12.105 4.813 12.725 5.217 13.098 5.613 C 13.21 5.732 13.312 5.829 13.325 5.829 C 13.337 5.829 13.377 5.807 13.414 5.78 C 13.475 5.736 13.461 5.713 13.244 5.512 C 12.807 5.107 12.168 4.672 11.57 4.372 C 11.279 4.226 10.391 3.867 10.317 3.864 L 10.317 3.864 L 10.317 3.864 Z M 13.546 6.256 L 13.758 6.505 L 13.721 6.528 C 13.721 6.528 13.676 6.524 13.654 6.52 C 13.624 6.514 13.593 6.511 13.568 6.494 C 13.55 6.484 13.533 6.468 13.527 6.449 C 13.507 6.387 13.546 6.256 13.546 6.256 L 13.546 6.256 Z"/>
</svg>
